T: Road To The Isles, The
M: 4/4
L: 1/8
K: Gmaj
DG|B3c dBAB|GAGF E2GF|ECEG DGBd|A3B A2DG|B3c dBAB|GAGF E2cA|BdBG DFAF|G2GFG2:|:Bc|dDD/D/D BDD/D/D|GAGF E2GF|ECEG DGBd|A3B A2Bc|dDD/D/D BDD/D/D|GAGF E2cA|BdBG DFAF|G2GF G2:|
